; G-Code generated by Simplify3D(R) Version 3.1.1
; Aug 26, 2018 at 3:54:05 PM
; Settings Summary
;   processName,2025
;   applyToModels,hex
;   profileName,persia (modified)
;   profileVersion,2016-09-04 15:07:54
;   baseProfile,Default
;   printMaterial,PLA
;   printQuality,Medium
;   printExtruders,
;   extruderName,Extruder 1
;   extruderToolheadNumber,0
;   extruderDiameter,0.4
;   extruderAutoWidth,1
;   extruderWidth,0.48
;   extrusionMultiplier,1
;   extruderUseRetract,1
;   extruderRetractionDistance,3
;   extruderExtraRestartDistance,0.1
;   extruderRetractionZLift,0
;   extruderRetractionSpeed,4800
;   extruderUseCoasting,0
;   extruderCoastingDistance,0.2
;   extruderUseWipe,0
;   extruderWipeDistance,5
;   primaryExtruder,0
;   layerHeight,0.3
;   topSolidLayers,6
;   bottomSolidLayers,4
;   perimeterOutlines,2
;   printPerimetersInsideOut,1
;   startPointOption,3
;   startPointOriginX,0
;   startPointOriginY,0
;   startPointOriginZ,300
;   sequentialIslands,1
;   spiralVaseMode,0
;   firstLayerHeightPercentage,120
;   firstLayerWidthPercentage,110
;   firstLayerUnderspeed,0.5
;   useRaft,0
;   raftExtruder,0
;   raftLayers,3
;   raftOffset,3
;   raftSeparationDistance,0.14
;   raftInfill,85
;   disableRaftBaseLayers,0
;   useSkirt,1
;   skirtExtruder,0
;   skirtLayers,1
;   skirtOutlines,2
;   skirtOffset,3
;   usePrimePillar,0
;   primePillarExtruder,999
;   primePillarWidth,12
;   primePillarLocation,7
;   primePillarSpeedMultiplier,1
;   useOozeShield,0
;   oozeShieldExtruder,999
;   oozeShieldOffset,2
;   oozeShieldOutlines,1
;   oozeShieldSidewallShape,1
;   oozeShieldSidewallAngle,30
;   oozeShieldSpeedMultiplier,1
;   infillExtruder,0
;   internalInfillPattern,Rectilinear
;   externalInfillPattern,Rectilinear
;   infillPercentage,16
;   outlineOverlapPercentage,15
;   infillExtrusionWidthPercentage,100
;   minInfillLength,3
;   infillLayerInterval,1
;   infillAngles,45,-45
;   overlapInfillAngles,0
;   generateSupport,1
;   supportExtruder,0
;   supportInfillPercentage,20
;   supportExtraInflation,0.15
;   denseSupportLayers,4
;   denseSupportInfillPercentage,70
;   supportLayerInterval,1
;   supportHorizontalPartOffset,1
;   supportUpperSeparationLayers,0
;   supportLowerSeparationLayers,0
;   supportType,0
;   supportGridSpacing,4
;   maxOverhangAngle,60
;   supportAngles,0
;   temperatureName,Extruder 1 Temperature,Heated Bed
;   temperatureNumber,0,0
;   temperatureSetpointCount,2,1
;   temperatureSetpointLayers,1,3,1
;   temperatureSetpointTemperatures,210,195,40
;   temperatureStabilizeAtStartup,1,1
;   temperatureHeatedBed,0,1
;   temperatureRelayBetweenLayers,0,0
;   temperatureRelayBetweenLoops,0,0
;   fanLayers,1,2
;   fanSpeeds,0,100
;   blipFanToFullPower,0
;   adjustSpeedForCooling,1
;   minSpeedLayerTime,15
;   minCoolingSpeedSlowdown,20
;   increaseFanForCooling,0
;   minFanLayerTime,45
;   maxCoolingFanSpeed,100
;   increaseFanForBridging,0
;   bridgingFanSpeed,100
;   use5D,1
;   relativeEdistances,0
;   allowEaxisZeroing,1
;   independentExtruderAxes,0
;   includeM10123,0
;   stickySupport,1
;   applyToolheadOffsets,0
;   gcodeXoffset,0
;   gcodeYoffset,0
;   gcodeZoffset,0
;   overrideMachineDefinition,1
;   machineTypeOverride,0
;   strokeXoverride,200
;   strokeYoverride,200
;   strokeZoverride,250
;   originOffsetXoverride,0
;   originOffsetYoverride,0
;   originOffsetZoverride,0
;   homeXdirOverride,-1
;   homeYdirOverride,-1
;   homeZdirOverride,-1
;   flipXoverride,1
;   flipYoverride,-1
;   flipZoverride,1
;   toolheadOffsets,0,0|0,0|0,0|0,0|0,0|0,0
;   overrideFirmwareConfiguration,1
;   firmwareTypeOverride,RepRap (Marlin/Repetier/Sprinter)
;   GPXconfigOverride,r2
;   baudRateOverride,250000
;   overridePrinterModels,0
;   printerModelsOverride
;   startingGcode,G28 ,
;   layerChangeGcode,
;   retractionGcode,
;   toolChangeGcode,
;   endingGcode,M104 S0 ; turn off extruder,M140 S0 ; turn off bed,M107,G91,G1 Z+5,M84 ; disable motors
;   exportFileFormat,gcode
;   celebration,0
;   celebrationSong,Random Song
;   postProcessing,
;   defaultSpeed,2400
;   outlineUnderspeed,0.8
;   solidInfillUnderspeed,1
;   supportUnderspeed,1
;   rapidXYspeed,4800
;   rapidZspeed,1002
;   minBridgingArea,50
;   bridgingExtraInflation,0
;   bridgingExtrusionMultiplier,1
;   bridgingSpeedMultiplier,1
;   filamentDiameter,1.75
;   filamentPricePerKg,46
;   filamentDensity,1.25
;   useMinPrintHeight,0
;   minPrintHeight,0
;   useMaxPrintHeight,0
;   maxPrintHeight,0
;   useDiaphragm,0
;   diaphragmLayerInterval,20
;   robustSlicing,1
;   mergeAllIntoSolid,0
;   onlyRetractWhenCrossingOutline,1
;   retractBetweenLayers,1
;   useRetractionMinTravel,0
;   retractionMinTravel,3
;   retractWhileWiping,0
;   onlyWipeOutlines,1
;   avoidCrossingOutline,1
;   maxMovementDetourFactor,3
;   toolChangeRetractionDistance,12
;   toolChangeExtraRestartDistance,-0.5
;   toolChangeRetractionSpeed,600
;   allowThinWallGapFill,1
;   thinWallAllowedOverlapPercentage,10
;   horizontalSizeCompensation,0
G90
M82
M106 S0
M140 S40
M190 S40
M104 S210 T0
M109 S210 T0
G28 
G92 E0
G1 E-3.0000 F4800
G1 Z0.360 F1002
; layer 1, Z = 0.36
T0
; tool H0.360 W0.528
; skirt
G1 X82.418 Y88.481 F4800
G1 E0.1000 F1440
G92 E0
G1 X99.022 Y79.003 E1.5108 F1200
G1 X99.205 Y78.955 E1.5258
G1 X101.002 Y78.964 E1.6678
G1 X101.185 Y79.014 E1.6828
G1 X117.694 Y88.655 E3.1936
G1 X117.828 Y88.789 E3.2086
G1 X118.719 Y90.350 E3.3506
G1 X118.767 Y90.533 E3.3656
G1 X118.673 Y109.651 E4.8764
G1 X118.623 Y109.834 E4.8914
G1 X117.716 Y111.386 E5.0334
G1 X117.582 Y111.519 E5.0484
G1 X100.978 Y120.997 E6.5592
G1 X100.795 Y121.045 E6.5742
G1 X98.998 Y121.036 E6.7162
G1 X98.815 Y120.986 E6.7312
G1 X82.306 Y111.345 E8.2420
G1 X82.172 Y111.211 E8.2570
G1 X81.281 Y109.650 E8.3990
G1 X81.233 Y109.466 E8.4140
G1 X81.327 Y90.349 E9.9248
G1 X81.377 Y90.166 E9.9398
G1 X82.284 Y88.614 E10.0818
G1 X82.418 Y88.481 E10.0968
G1 X82.711 Y88.866 F4800
G92 E0
G1 X99.205 Y79.452 E1.5008 F1200
G1 X99.266 Y79.436 E1.5058
G1 X100.937 Y79.444 E1.6379
G1 X100.998 Y79.461 E1.6428
G1 X117.398 Y89.037 E3.1437
G1 X117.442 Y89.082 E3.1487
G1 X118.271 Y90.533 E3.2807
G1 X118.287 Y90.594 E3.2857
G1 X118.193 Y109.585 E4.7865
G1 X118.176 Y109.646 E4.7915
G1 X117.334 Y111.089 E4.9235
G1 X117.289 Y111.134 E4.9285
G1 X100.795 Y120.548 E6.4294
G1 X100.734 Y120.564 E6.4344
G1 X99.063 Y120.556 E6.5664
G1 X99.002 Y120.539 E6.5714
G1 X82.602 Y110.963 E8.0722
G1 X82.558 Y110.918 E8.0772
G1 X81.729 Y109.467 E8.2092
G1 X81.713 Y109.406 E8.2142
G1 X81.807 Y90.415 E9.7151
G1 X81.824 Y90.354 E9.7200
G1 X82.666 Y88.911 E9.8521
G1 X82.711 Y88.866 E9.8571
; inner perimeter
G1 X99.919 Y116.406 F4800
G92 E0
G1 X85.752 Y108.133 E1.2965 F1080
G1 X85.833 Y91.727 E2.5930
G1 X100.081 Y83.594 E3.8895
G1 X114.248 Y91.867 E5.1860
G1 X114.167 Y108.273 E6.4825
G1 X99.919 Y116.406 E7.7790
; outer perimeter
G1 X99.916 Y117.015 F4800
G92 E0
G1 X85.222 Y108.435 E1.3447 F960
G1 X85.306 Y91.420 E2.6894
G1 X100.084 Y82.985 E4.0340
G1 X114.778 Y91.565 E5.3787
G1 X114.694 Y108.580 E6.7234
G1 X99.916 Y117.015 E8.0681
; solid layer
G1 X86.249 Y107.904 F4800
G92 E0
G1 X86.202 Y107.856 E0.0053 F1200
G1 X86.206 Y107.113 E0.0640
G1 X88.044 Y108.952 E0.2695
G1 X89.839 Y110.000 E0.4337
G1 X86.209 Y106.370 E0.8393
G1 X86.213 Y105.627 E0.8980
G1 X91.633 Y111.048 E1.5038
G1 X93.428 Y112.096 E1.6681
G1 X86.217 Y104.884 E2.4740
G1 X86.220 Y104.141 E2.5327
G1 X95.223 Y113.144 E3.5389
G1 X97.017 Y114.192 E3.7031
G1 X86.224 Y103.398 E4.9094
G1 X86.228 Y102.655 E4.9681
G1 X98.812 Y115.240 E6.3746
G1 X99.922 Y115.888 E6.4761
G1 X100.103 Y115.784 E6.4926
G1 X86.231 Y101.912 E8.0429
G1 X86.235 Y101.169 E8.1017
G1 X100.579 Y115.513 E9.7047
G1 X101.054 Y115.241 E9.7480
G1 X86.239 Y100.426 E11.4037
G1 X86.242 Y99.683 E11.4625
G1 X101.529 Y114.970 E13.1709
G1 X102.005 Y114.699 E13.2142
G1 X86.246 Y98.940 E14.9754
G1 X86.250 Y98.197 E15.0341
G1 X102.480 Y114.427 E16.8480
G1 X102.955 Y114.156 E16.8913
G1 X86.253 Y97.454 E18.7579
G1 X86.257 Y96.711 E18.8166
G1 X103.431 Y113.885 E20.7360
G1 X103.906 Y113.613 E20.7792
G1 X86.261 Y95.968 E22.7513
G1 X86.264 Y95.225 E22.8100
G1 X104.381 Y113.342 E24.8348
G1 X104.857 Y113.071 E24.8781
G1 X86.268 Y94.482 E26.9556
G1 X86.271 Y93.739 E27.0143
G1 X105.332 Y112.799 E29.1445
G1 X105.808 Y112.528 E29.1878
G1 X86.275 Y92.995 E31.3707
G1 X86.279 Y92.252 E31.4294
G1 X106.283 Y112.257 E33.6651
G1 X106.758 Y111.985 E33.7083
G1 X86.587 Y91.813 E35.9627
G1 X87.062 Y91.542 E36.0060
G1 X107.234 Y111.714 E38.2604
G1 X107.709 Y111.443 E38.3036
G1 X87.537 Y91.271 E40.5580
G1 X88.013 Y90.999 E40.6013
G1 X108.184 Y111.171 E42.8557
G1 X108.660 Y110.900 E42.8989
G1 X88.488 Y90.728 E45.1533
G1 X88.963 Y90.457 E45.1966
G1 X109.135 Y110.629 E47.4510
G1 X109.611 Y110.357 E47.4942
G1 X89.439 Y90.185 E49.7486
G1 X89.914 Y89.914 E49.7919
G1 X110.086 Y110.086 E52.0462
G1 X110.561 Y109.815 E52.0895
G1 X90.389 Y89.643 E54.3439
G1 X90.865 Y89.371 E54.3871
G1 X111.037 Y109.543 E56.6415
G1 X111.512 Y109.272 E56.6848
G1 X91.340 Y89.100 E58.9392
G1 X91.816 Y88.829 E58.9824
G1 X111.987 Y109.001 E61.2368
G1 X112.463 Y108.729 E61.2801
G1 X92.291 Y88.557 E63.5345
G1 X92.766 Y88.286 E63.5777
G1 X112.938 Y108.458 E65.8321
G1 X113.413 Y108.187 E65.8754
G1 X93.242 Y88.015 E68.1298
G1 X93.717 Y87.743 E68.1730
G1 X113.721 Y107.748 E70.4087
G1 X113.725 Y107.004 E70.4674
G1 X94.192 Y87.472 E72.6503
G1 X94.668 Y87.201 E72.6936
G1 X113.728 Y106.261 E74.8238
G1 X113.732 Y105.518 E74.8825
G1 X95.143 Y86.929 E76.9600
G1 X95.619 Y86.658 E77.0033
G1 X113.736 Y104.775 E79.0281
G1 X113.739 Y104.032 E79.0868
G1 X96.094 Y86.387 E81.0588
G1 X96.569 Y86.115 E81.1021
G1 X113.743 Y103.289 E83.0215
G1 X113.747 Y102.546 E83.0802
G1 X97.045 Y85.844 E84.9468
G1 X97.520 Y85.573 E84.9901
G1 X113.750 Y101.803 E86.8040
G1 X113.754 Y101.060 E86.8627
G1 X97.995 Y85.301 E88.6239
G1 X98.471 Y85.030 E88.6671
G1 X113.758 Y100.317 E90.3756
G1 X113.761 Y99.574 E90.4343
G1 X98.946 Y84.759 E92.0901
G1 X99.421 Y84.487 E92.1334
G1 X113.765 Y98.831 E93.7364
G1 X113.769 Y98.088 E93.7951
G1 X99.897 Y84.216 E95.3455
G1 X100.078 Y84.112 E95.3620
G1 X101.188 Y84.760 E95.4635
G1 X113.772 Y97.345 E96.8700
G1 X113.776 Y96.602 E96.9287
G1 X102.983 Y85.808 E98.1350
G1 X104.777 Y86.856 E98.2992
G1 X113.780 Y95.859 E99.3053
G1 X113.783 Y95.116 E99.3640
G1 X106.572 Y87.904 E100.1700
G1 X108.367 Y88.952 E100.3342
G1 X113.787 Y94.373 E100.9400
G1 X113.791 Y93.630 E100.9987
G1 X110.161 Y90.000 E101.4043
G1 X111.956 Y91.048 E101.5686
G1 X113.794 Y92.887 E101.7740
G1 X113.798 Y92.144 E101.8327
G1 X113.751 Y92.096 E101.8380
G92 E0
G1 E-3.0000 F4800
; layer 2, Z = 0.66
M106 S255
; tool H0.300 W0.480
; inner perimeter
G1 X99.919 Y116.489 F4800
G1 Z0.660 F1002
G1 E0.1000 F4800
G92 E0
G1 X85.680 Y108.174 E0.9872 F2160
G1 X85.761 Y91.685 E1.9744
G1 X100.081 Y83.511 E2.9615
G1 X114.320 Y91.826 E3.9487
G1 X114.239 Y108.315 E4.9359
G1 X99.919 Y116.489 E5.9230
; outer perimeter
G1 X99.916 Y117.043 F4800
G92 E0
G1 X85.198 Y108.449 E1.0204 F1920
G1 X85.282 Y91.406 E2.0407
G1 X100.084 Y82.957 E3.0611
G1 X114.802 Y91.551 E4.0814
G1 X114.718 Y108.594 E5.1018
G1 X99.916 Y117.043 E6.1221
; solid layer
G1 X113.833 Y107.889 F4800
G92 E0
G1 X113.396 Y108.326 E0.0370 F2400
G1 X111.814 Y109.229 E0.1460
G1 X113.837 Y107.207 E0.3173
G1 X113.840 Y106.525 E0.3581
G1 X110.233 Y110.132 E0.6635
G1 X108.651 Y111.035 E0.7725
G1 X113.843 Y105.843 E1.2121
G1 X113.847 Y105.160 E1.2530
G1 X107.070 Y111.937 E1.8267
G1 X105.488 Y112.840 E1.9358
G1 X113.850 Y104.478 E2.6437
G1 X113.853 Y103.796 E2.6846
G1 X103.907 Y113.743 E3.5268
G1 X102.325 Y114.646 E3.6358
G1 X113.857 Y103.114 E4.6121
G1 X113.860 Y102.432 E4.6530
G1 X100.743 Y115.548 E5.7635
G1 X99.921 Y116.018 E5.8202
G1 X99.715 Y115.898 E5.8345
G1 X113.864 Y101.749 E7.0324
G1 X113.867 Y101.067 E7.0732
G1 X99.287 Y115.647 E8.3077
G1 X98.858 Y115.397 E8.3374
G1 X113.870 Y100.385 E9.6084
G1 X113.874 Y99.703 E9.6492
G1 X98.430 Y115.147 E10.9568
G1 X98.001 Y114.897 E10.9865
G1 X113.877 Y99.021 E12.3307
G1 X113.880 Y98.338 E12.3716
G1 X97.572 Y114.646 E13.7523
G1 X97.144 Y114.396 E13.7820
G1 X113.884 Y97.656 E15.1993
G1 X113.887 Y96.974 E15.2401
G1 X96.715 Y114.146 E16.6940
G1 X96.287 Y113.896 E16.7237
G1 X113.890 Y96.292 E18.2142
G1 X113.894 Y95.610 E18.2550
G1 X95.858 Y113.645 E19.7820
G1 X95.430 Y113.395 E19.8117
G1 X113.897 Y94.928 E21.3753
G1 X113.901 Y94.245 E21.4162
G1 X95.001 Y113.145 E23.0163
G1 X94.572 Y112.895 E23.0460
G1 X113.904 Y93.563 E24.6827
G1 X113.907 Y92.881 E24.7236
G1 X94.144 Y112.644 E26.3969
G1 X93.715 Y112.394 E26.4266
G1 X113.911 Y92.199 E28.1364
G1 X113.911 Y92.059 E28.1448
G1 X113.570 Y91.860 E28.1684
G1 X93.287 Y112.144 E29.8858
G1 X92.858 Y111.894 E29.9155
G1 X113.142 Y91.610 E31.6328
G1 X112.713 Y91.360 E31.6625
G1 X92.430 Y111.643 E33.3799
G1 X92.001 Y111.393 E33.4096
G1 X112.285 Y91.110 E35.1269
G1 X111.856 Y90.859 E35.1566
G1 X91.573 Y111.143 E36.8739
G1 X91.144 Y110.893 E36.9037
G1 X111.427 Y90.609 E38.6210
G1 X110.999 Y90.359 E38.6507
G1 X90.715 Y110.642 E40.3680
G1 X90.287 Y110.392 E40.3977
G1 X110.570 Y90.109 E42.1151
G1 X110.142 Y89.858 E42.1448
G1 X89.858 Y110.142 E43.8621
G1 X89.430 Y109.892 E43.8918
G1 X109.713 Y89.608 E45.6092
G1 X109.285 Y89.358 E45.6389
G1 X89.001 Y109.641 E47.3562
G1 X88.573 Y109.391 E47.3859
G1 X108.856 Y89.107 E49.1033
G1 X108.428 Y88.857 E49.1330
G1 X88.144 Y109.141 E50.8503
G1 X87.715 Y108.890 E50.8800
G1 X107.999 Y88.607 E52.5973
G1 X107.570 Y88.357 E52.6271
G1 X87.287 Y108.640 E54.3444
G1 X86.858 Y108.390 E54.3741
G1 X107.142 Y88.106 E56.0914
G1 X106.713 Y87.856 E56.1211
G1 X86.430 Y108.140 E57.8385
G1 X86.089 Y107.941 E57.8621
G1 X86.089 Y107.801 E57.8705
G1 X106.285 Y87.606 E59.5803
G1 X105.856 Y87.356 E59.6100
G1 X86.093 Y107.119 E61.2833
G1 X86.096 Y106.437 E61.3242
G1 X105.428 Y87.105 E62.9609
G1 X104.999 Y86.855 E62.9906
G1 X86.099 Y105.755 E64.5908
G1 X86.103 Y105.073 E64.6316
G1 X104.570 Y86.605 E66.1952
G1 X104.142 Y86.355 E66.2249
G1 X86.106 Y104.390 E67.7519
G1 X86.110 Y103.708 E67.7928
G1 X103.713 Y86.104 E69.2832
G1 X103.285 Y85.854 E69.3129
G1 X86.113 Y103.026 E70.7668
G1 X86.116 Y102.344 E70.8076
G1 X102.856 Y85.604 E72.2249
G1 X102.428 Y85.354 E72.2547
G1 X86.120 Y101.662 E73.6354
G1 X86.123 Y100.979 E73.6762
G1 X101.999 Y85.103 E75.0204
G1 X101.570 Y84.853 E75.0501
G1 X86.126 Y100.297 E76.3577
G1 X86.130 Y99.615 E76.3986
G1 X101.142 Y84.603 E77.6696
G1 X100.713 Y84.353 E77.6993
G1 X86.133 Y98.933 E78.9338
G1 X86.136 Y98.251 E78.9746
G1 X100.285 Y84.102 E80.1725
G1 X100.079 Y83.982 E80.1867
G1 X99.257 Y84.451 E80.2434
G1 X86.140 Y97.568 E81.3540
G1 X86.143 Y96.886 E81.3948
G1 X97.675 Y85.354 E82.3712
G1 X96.094 Y86.257 E82.4802
G1 X86.147 Y96.204 E83.3224
G1 X86.150 Y95.522 E83.3633
G1 X94.512 Y87.160 E84.0713
G1 X92.930 Y88.063 E84.1803
G1 X86.153 Y94.840 E84.7541
G1 X86.157 Y94.158 E84.7949
G1 X91.349 Y88.965 E85.2346
G1 X89.767 Y89.868 E85.3436
G1 X86.160 Y93.475 E85.6490
G1 X86.163 Y92.793 E85.6898
G1 X88.186 Y90.771 E85.8611
G1 X86.604 Y91.674 E85.9701
G1 X86.167 Y92.111 E86.0071
G92 E0
G1 E-3.0000 F4800
; layer 3, Z = 0.96
M104 S195 T0
; inner perimeter
G1 X99.919 Y116.489 F4800
G1 Z0.960 F1002
G1 E0.1000 F4800
G92 E0
G1 X85.680 Y108.174 E0.9872 F2160
G1 X85.761 Y91.685 E1.9744
G1 X100.081 Y83.511 E2.9615
G1 X114.320 Y91.826 E3.9487
G1 X114.239 Y108.315 E4.9359
G1 X99.919 Y116.489 E5.9230
; outer perimeter
G1 X99.916 Y117.043 F4800
G92 E0
G1 X85.198 Y108.449 E1.0204 F1920
G1 X85.282 Y91.406 E2.0407
G1 X100.084 Y82.957 E3.0611
G1 X114.802 Y91.551 E4.0814
G1 X114.718 Y108.594 E5.1018
G1 X99.916 Y117.043 E6.1221
; solid layer
G1 X86.400 Y108.122 F4800
G92 E0
G1 X86.089 Y107.812 E0.0263 F2400
G1 X86.093 Y107.136 E0.0668
G1 X88.032 Y109.075 E0.2309
G1 X89.663 Y110.028 E0.3440
G1 X86.096 Y106.461 E0.6461
G1 X86.099 Y105.785 E0.6865
G1 X91.295 Y110.981 E1.1264
G1 X92.926 Y111.933 E1.2395
G1 X86.103 Y105.110 E1.8172
G1 X86.106 Y104.434 E1.8577
G1 X94.558 Y112.886 E2.5733
G1 X96.189 Y113.839 E2.6864
G1 X86.109 Y103.759 E3.5398
G1 X86.113 Y103.083 E3.5803
